X: 292
T: Benzemez Kimse Sana
C: Fehmi Tokay
O: Turkey
F: http://compmusic.upf.edu/node/140
N: beyati--sarki--aksak--benzemez_kimse--fehmi_tokay
N: makam= beyati
N: form= sarki
N: usul= aksak = 9/8
M: 9/8
L: 1/16
K: C _2/4B   
Q: 1/4=112
%%MIDI tuningsystem comma53
A3/2d/c/e/d z.c2d d4 {d}e2cc B/A/B/A/ | \
w:  *  *  *  *  *  Ben ze mez  *  kim  | 
ed {e}dccB BAA3fed cB/A/A2  | 
w:  *  *  *  *  *  se  *  sa *  na  SAZ  | 
A2{B}AG A2B2 c2d2 d4 cB | c3Be2 edd4c3BBA  | \
w:  tav *  *  *  rı na  hay *  ran   |  *  *  o la *  yım   SAZ  | 
A3/2d/c/e/d z.c2d d4 {d}e2cc B/A/B/A/ | 
w:  *  *  *  *  *  Ben ze mez  *  kim  | 
ed {e}dccB BAA3fed cB/A/A2  | A2{B}AG A2B2 c2d2 d4 cB | 
w:  *  *  *  *  *  se  *  sa *  na  SAZ  |  tav *  *  *  rı na  hay *  ran   | 
c3Be2 edd3d/e/f4.e.g  | f1/4g1/4f1/4e1/4f/g/f/e/f z2ef f2e2 agg3/2f/ f3/2e/ | 
w:  *  *  o la *  yım   SAZ  |  *  *  *  *  *  *  *  *  *  Ba kı şın *  dan   | 
e/d/e2dd2 edd2 B2GA Bcd2  | c2{d}cd d2de c2BA A4 B2 | 
w:  *  *  *  *  sü zü *  len  SAZ  |  iş *  *  *  ve ne  *  kur *  *  ban   | 
c/B/c2BA2 B2{d}c4cd cBAB  | c3/2d/c/e/d z2cd d4 d4 dc | 
w:  *  *  *  *  o la *  yım   SAZ  |  *  *  *  *  *  Ba kı şın dan   | 
c3B{c}B2 BAA3fed cB/A/{B}A2  | G2{A}GA A2{A}f2 e2d2 c4 (3BAB | 
w:  *  *  *  sü zü *  len  SAZ  |  iş *  *  *  ve *  ne  kur *  ban   | 
ed dc{c}B2 BAA4a/g/a2g.^3/4f.g  | \
w:  *  *  *  *  *  o la *  yım   SAZ  | 
a1/4b1/4a1/4g1/4a/b/a/g/a z.g2a a4 a3/2g/g3/2f/ f3/2e/ | 
w:  *  *  *  *  *  *  *  *  *  Lût fu na  er  | 
e/d/e2dd2 edd2 B2GA Bcd2  | c2{d}cd d2d2 d2e2 {d}c2B2 A2 | 
w:  *  *  *  *  mek_ i *  çin  SAZ  |  söy *  *  *  le  pe rî *  *  şan   | 
g2 fee/d/e2{f}e/d/d4a/g/a2g.^3/4f.g  | \
w:  *  *  *  o *  *  *  la *  yım   SAZ  | 
a1/4b1/4a1/4g1/4a/b/a/g/a z.g2a a4 a3/2g/g3/2f/ f3/2e/ | 
w:  *  *  *  *  *  *  *  *  *  Lût fu na  er  | 
e/d/e2dd2 edd2 B2GA Bcd2  | c2{d}cd d2d2 d2e2 {d}c2B2 A2 | 
w:  *  *  *  *  mek_ i *  çin  SAZ  |  söy *  *  *  le  pe rî *  *  şan   | 
g2 fee/d/e2{f}e/d/d3d/e/f4.e.g  | \
w:  *  *  *  o *  *  *  la *  yım   SAZ  | 
f1/4g1/4f1/4e1/4f/g/f/e/f z2ef f2e2 agg3/2f/ f3/2e/ | 
w:  *  *  *  *  *  *  *  *  *  Ba kı şın *  dan   | 
e/d/e2dd2 edd2 B2GA Bcd2  | c2{d}cd d2de c2BA A4 B2 | 
w:  *  *  *  *  sü zü *  len  SAZ  |  iş *  *  *  ve ne  *  kur *  *  ban   | 
c/B/c2BA2 B2{d}c4cd cBAB  | c3/2d/c/e/d z2cd d4 d4 dc | 
w:  *  *  *  *  o la *  yım   SAZ  |  *  *  *  *  *  Ba kı şın dan   | 
c3B{c}B2 BAA3fed cB/A/{B}A2  | G2{A}GA A2{A}f2 e2d2 c4 (3BAB | 
w:  *  *  *  sü zü *  len  SAZ  |  iş *  *  *  ve *  ne  kur *  ban   | 
ed dc{c}B2 BAA4|
w:  *  *  *  *  *  o la *  yım    | 


